public/images/sent.svg

<svg width="244" height="239" viewBox="0 0 244 239" fill="none" xmlns="http://www.w3.org/2000/svg">
<path d="M211.078 51.0781L220.922 60.9219L104 177.953L43.0781 116.922L52.9219 107.078L104 158.047L211.078 51.0781Z" fill="#2F80ED"/>
<path fill-rule="evenodd" clip-rule="evenodd" d="M178.487 54.0129C159.531 36.6177 134.256 26 106.5 26C47.6817 26 0 73.6817 0 132.5C0 191.318 47.6817 239 106.5 239C165.318 239 213 191.318 213 132.5C213 127.272 212.623 122.131 211.895 117.105L197.988 131.012C197.996 131.507 198 132.003 198 132.5C198 183.034 157.034 224 106.5 224C55.9659 224 15 183.034 15 132.5C15 81.9659 55.9659 41 106.5 41C130.113 41 151.638 49.9448 167.869 64.6309L178.487 54.0129Z" fill="#2F80ED"/>
</svg>

<svg width="244" height="239" fill="none" xmlns="http://www.w3.org/2000/svg"><path d="M211.078 51.078l9.844 9.844L104 177.953l-60.922-61.031 9.844-9.844L104 158.047 211.078 51.078z" fill="#2F80ED"/><path fill-rule="evenodd" clip-rule="evenodd" d="M178.487 54.013C159.531 36.618 134.256 26 106.5 26 47.682 26 0 73.682 0 132.5S47.682 239 106.5 239 213 191.318 213 132.5c0-5.228-.377-10.369-1.105-15.395l-13.907 13.907c.008.495.012.991.012 1.488 0 50.534-40.966 91.5-91.5 91.5S15 183.034 15 132.5 55.966 41 106.5 41c23.613 0 45.138 8.945 61.369 23.63l10.618-10.617z" fill="#2F80ED"/></svg>
